X: 1
T: Coleman's Cross
M: 6/8
L: 1/8
R: jig
K: Edor
|:d|B2e efe|~B2e efe|A2d ded|~A2d ded|
B2e efe|B2e g2a|bag agf|gee e2:|
|:f|gdB ~G3|~F3 AFD|GB/2c/2d efg|fdc def|
gdB ~G3|~F3 AFD|GB/2c/2d efg|fdc d2:|
